X: 6
T: HORNPIPES: Seanbhean Bhocht Set
T: Seanbhean Bhocht / An tSeanbhean Bhocht
C: C: Trad.; S: Various
C: Set Leaders: Sophie, Anton
Z: Anton Zille ed., Oleg Naumov arr.; Tommy McCarty / Edgar Bolton at The Session
N: https://thesession.org/members/26966/sets/92011
R: Hornpipe
M: 4/4
L: 1/8
Q: 1/2=82
K: Gmaj
|:(3ABc|"G"dggf gedc|"G/B"B2 "G"G2 GBdB|"Am"ceab afdB|"C"c2 "D"A2 A2 Bc|
"G"dg"D"gf "G"g2BA|"G/B"GD"C"BD "G/B"GBdB|"C"ceaf "D"gedc|1 "G/B"B2 "G"G2 G2:|2 "G/B"B2 "G"G2 G2 dc||
|:"G"Bdgd Bd"C"gd|"G/B"BdcA "G"GBdB|"Am"ceae ceae|"C"cABG "D"A2 dc|
"G"(3Bcd "D"gd "G"(3Bcd gd|"G/B"(3Bcd "C"cA "G/B"GBdB|"C"ceaf "D"gedc|1 "G/B"B2 "G"G2 G2 dc:|2 "G/B"B2 "G"G2 G2 ga||
|:"G/B"(3bag af "G"ge"C"dc|"G/B"B2 G2 G2ab|"Am"(3c'ba bg afdB|"C"c2 A2 "D"A2 ga|
"G"(3bag "D"af "G"g2 BA|"G/B"GD"C"BD "G/B"GBdB|"C"ceaf "D"gedc|1 "G/B"B2 "G"G2 G2 ga:|2 "G/B"B2 "G"G2 G2||
T: Bantry Bay / Little Stack of Wheat
K: Gmaj
GA|:"G"BGAG "C"EGDE|"G/B"G2GF "(G)"GBAG|"C"(3EFG AB "G/B"cBAG|"Am"(3ABA (3GAB "D"A2 AB|
"C"cece "G/B"BdBd|"Am"ABAG "Em"EGDG|"G/B"BGAG "C"EGDE|1 "G/B"G2 "G"GF G2GA:|2 "G/B"G2 "G"GF G2 (3ABc||
|:"G"d2 eB dBGA|"Em"Beed e2 ef|"C"gfed "G/B"BGBd|"C"(3efg "D"(3fga "Em"g2 ef|
"G (C)"g2 gf "C"(3efg ed|"G/B"BGAG "Am"EGDG|"G/B"BGAG "C"EGDE|1 "G/B"G2 "D"GF "G"G2 (3ABc:|2 "G/B"G2 "D"GF "G"G4||

